!!!ONB: MCCC : IJH0405_01 : Extracted Monophonic Melody
!!!COM: Haydn, Joseph
!!!OPR: String Quartet in B-flat major
!!!OMV: 1
!!!SCT: Hob.III:1 ; Op.1 No.1
!!!ODT: 1757///
**kern
*thru
*k[b-e-]
*B-:
*clefF
*M6/8
8B-
=1
4B-
8d
4d
8f
=2
4f
8b-
4b-
8ff
=3
8ff
8bb-
8gg
4ff
8r
=4
2r
8r
8B-
=5
4B-
8d
4d
8f
=6
4f
8b-
4b-
8dd
=7
8cc
8ff
8dd
4cc
8r
=8
2r
8r
8dd
=9
8bb-
8gg
8ee
8ff
8cc
8cc
=10
8gg
8ee
8b-
8a
8cc
8cc
=11
8dd
8b-
8g
8cc
8a
8f
=12
8e
8b-
8b-
8b-
8a
8cc
=13
8bb-
8gg
8ee
8ff
8cc
8cc
=14
8gg
8ee
8b-
8a
8cc
8cc
=15
8dd
8dd
8ee
8ff
8ff
8gg
=16
8aa
8aa
8bb-
4ccc
8r
=17
16bb-
16gg
16ee
16cc
16b-
16g
4f
8r
=18
16bb-
16gg
16ee
16cc
16b-
16g
4f
8r
=19
16bb-
16gg
16ee
16cc
16b-
16g
16f
16a
16cc
16ee
16ff
16aa
=20
16bb-
16gg
16ee
16cc
16b-
16g
4f
8A
=21
8B-
8B-
8c
8d
8f
8A
=22
8B-
8g
8e
8f
8r
8g
=23
8f
8r
8g
8f
8r
8g
=24
8f
8f
8g
4f
8ddd
=25
16ddd
16bb
16gg
16ff
16dd
16b
4g
8r
=26
2r
8r
8ccc
=27
16ccc
16aa
16ff
16ee-
16cc
16a
4f
8r
=28
2r
8r
8b-
=29
8g
8e-
4.r
8dd
=30
8b-
8g
4.r
8ff
=31
8ff
8ff
8ff
8bb-
8ff
8r
=32
2r
8r
8ff
=33
8ff
16gg
16ff
16gg
16ff
8bb-
8ff
8r
=34
2r
8r
8ff
=35
8gg-
8ff
4.r
8ff
=36
8gg-
8ff
4.r
8f
=37
4b-
8f
4d-
8B-
=38
8g-
8f
8e
4f
8b-
=39
8a
8ff
8b-
8a
8ff
8b-
=40
8a
8ff
8b-
8a
8r
8B-
=41
4B-
8d
4d
8f
=42
4f
8b-
4b-
8ff
=43
8ff
8bb-
8gg
4ff
8r
=44
2r
8r
8B-
=45
4B-
8e-
4e-
8g
=46
4g
8b-
4b-
8gg
=47
8gg
8bb-
8gg
4ff
8r
=48
2r
8r
8dd
=49
8bb-
8gg
8ee
8ff
8cc
8cc
=50
8aa-
8ff
8dd
8ee-
8b-
8b-
=51
8gg
8ee-
8cc
8ff
8dd
8b-
=52
8a
8ee-
8ee-
8dd
8b-
8f
=53
8g
8g
8a
8b-
8b-
8cc
=54
8dd
8dd
8ee-
4ff
8r
=55
16ee-
16cc
16a
16f
16e-
16c
4B-
8r
=56
16ee-
16cc
16a
16f
16e-
16c
4B-
8r
=57
16ee-
16cc
16a
16f
16e-
16c
16B-
16d
16f
16a
16b-
16dd
=58
16ee-
16cc
16a
16f
16e-
16c
4B-
8f
=59
8g
8g
8a
8b-
8dd
8f
=60
8g
8cc
8a
8b-
8r
8cc
=61
8b-
8r
8cc
8b-
8r
8cc
=62
8b-
8b-
8cc
4b-
8r
==
*-
